assets/images/system/icon/email-icon.svg

<svg width="24" height="24" viewBox="0 0 24 24" fill="none" xmlns="http://www.w3.org/2000/svg">
<path d="M12.042 23.6481C4.229 23.6481 0 18.7721 0 12.4771C0 5.75005 4.762 0.352051 13.276 0.352051C19.49 0.352051 24 4.39005 24 9.95305C24 18.6651 13.67 20.965 14.188 15.9951C13.478 17.1031 12.334 18.3491 10.135 18.3491C7.619 18.3491 6.055 16.507 6.055 13.5421C6.055 9.09805 8.976 5.34305 12.434 5.34305C14.093 5.34305 15.234 6.21905 15.711 7.56405L16.175 5.93205H18.513C18.269 6.76405 16.192 14.4591 16.192 14.4591C15.544 17.125 17.542 17.1721 19.314 15.7561C22.643 13.1761 22.815 6.42905 18.316 3.61505C13.495 0.724051 2.521 2.51305 2.521 12.3081C2.521 17.9191 6.471 21.6891 12.35 21.6891C15.786 21.6891 17.892 20.7591 19.645 19.7411L20.822 21.4391C19.111 22.4051 16.361 23.6481 12.042 23.6481ZM9.698 9.34305C8.983 10.6831 8.521 12.4191 8.521 13.7671C8.521 17.3771 12.043 17.4001 13.773 14.0061C14.485 12.6121 14.944 10.8351 14.944 9.47705C14.944 6.56005 11.449 6.04305 9.698 9.34305Z" fill="#017113"/>
</svg>

<svg xmlns="http://www.w3.org/2000/svg" width="24" height="24" fill="none" xmlns:v="https://vecta.io/nano"><path d="M12.042 23.648C4.229 23.648 0 18.772 0 12.477 0 5.75 4.762.352 13.276.352 19.49.352 24 4.39 24 9.953c0 8.712-10.33 11.012-9.812 6.042-.71 1.108-1.854 2.354-4.053 2.354-2.516 0-4.08-1.842-4.08-4.807 0-4.444 2.921-8.199 6.379-8.199 1.659 0 2.8.876 3.277 2.221l.464-1.632h2.338c-.244.832-2.321 8.527-2.321 8.527-.648 2.666 1.35 2.713 3.122 1.297 3.329-2.58 3.501-9.327-.998-12.141C13.495.724 2.521 2.513 2.521 12.308c0 5.611 3.95 9.381 9.829 9.381 3.436 0 5.542-.93 7.295-1.948l1.177 1.698c-1.711.966-4.461 2.209-8.78 2.209zM9.698 9.343c-.715 1.34-1.177 3.076-1.177 4.424 0 3.61 3.522 3.633 5.252.239.712-1.394 1.171-3.171 1.171-4.529 0-2.917-3.495-3.434-5.246-.134z" fill="#017113"/></svg>
